src/images/pages/trade-explanation/zh_tw/down.svg

<svg width="301" height="201" xmlns="http://www.w3.org/2000/svg"><g transform="translate(2 2)" fill="none" fill-rule="evenodd"><path stroke="#C2C2C2" stroke-width="2.448" fill="#F1F2F2" d="M.215.214h297.456V197.42H.215z"/><path d="M.14 32.867h297.455" stroke="#C2C2C2" stroke-width="2.448"/><path d="M2.266 54.673h293.202M2.266 75.266h293.202M2.266 95.821h293.202M2.266 136.97h293.202M2.266 157.525h293.202M2.266 178.08h293.202M37.658 34.118v162.09M74.76 34.118v162.09m37.102-162.09v162.09m37.101-162.09v162.09m37.063-162.09v162.09m37.102-162.09v162.09m37.1-162.09v162.09" stroke="#DFDEDE" stroke-width="1.224"/><path d="M2.266 116.376h293.202" stroke="#2A3052" stroke-width="1.224" stroke-linejoin="round"/><path stroke="#2A3052" stroke-width="3.672" stroke-linecap="round" stroke-linejoin="round" d="M37.924 116.376l34.025 24.765 35.203-39.024 33.607 36.142 45.266-44.334 43.785 90.26 30.418-26.66"/><path d="M187.507 147.305h-35.393L146.646 139l-5.468 8.305h-35.393a4.81 4.81 0 0 0-3.404 1.434 4.798 4.798 0 0 0-1.38 3.42v25.069a4.798 4.798 0 0 0 1.38 3.421 4.81 4.81 0 0 0 3.404 1.433h81.684a4.81 4.81 0 0 0 3.403-1.433 4.798 4.798 0 0 0 1.381-3.421V152.16a4.82 4.82 0 0 0-4.746-4.855z" fill="#E88024"/><ellipse cx="8.544" cy="9.188" rx="8.203" ry="8.571" opacity=".6" transform="translate(29.38 107.189)" fill="#FFF"/><ellipse stroke="#E88024" stroke-width="2.448" cx="37.924" cy="116.376" rx="8.203" ry="8.571"/><ellipse cx="8.595" cy="9.012" rx="8.203" ry="8.571" opacity=".6" transform="translate(251.633 147.906)" fill="#FFF"/><ellipse stroke="#E88024" stroke-width="2.448" cx="260.228" cy="156.918" rx="8.203" ry="8.571"/><path d="M21.092 11.954h4.606v4.76h-1.33v1.82h1.428v1.372h-1.428v1.974c.476-.14.938-.294 1.386-.434v1.456c-1.428.476-3.08.924-4.928 1.33l-.42-1.4.602-.126v-4.802h1.288v4.522c.252-.056.49-.112.714-.168v-5.544h-1.918v-4.76zm3.22 3.416v-2.072h-1.82v2.072h1.82zm3.542-.098c-.196.7-.42 1.33-.672 1.918l-1.204-.756c.574-1.288.98-2.66 1.232-4.102l1.246.266c-.084.448-.154.868-.238 1.274h.91v-2.324H30.5v2.324h2.1v1.4h-2.114a34.075 34.075 0 0 1-.182 2.296h2.828v1.414h-2.408c.35 1.806 1.302 3.22 2.842 4.242l-.812 1.302a8.292 8.292 0 0 1-2.996-4.354c-.112.336-.224.644-.336.938-.644 1.456-1.666 2.576-3.094 3.36l-.742-1.176c1.372-.84 2.296-1.904 2.772-3.164.112-.364.224-.742.322-1.148h-2.534v-1.414h2.786c.084-.714.154-1.484.182-2.296h-1.26z" fill="#000" fill-rule="nonzero"/><path d="M27.15 150.892h1.862v-1.61h-1.484v-.868h6.79v.868H32.96v1.61h1.806v.896H32.96v3.22h-.924v-3.22h-2.184c-.084.742-.252 1.372-.504 1.876-.336.658-.91 1.176-1.694 1.54l-.504-.798c.686-.336 1.176-.784 1.456-1.344.154-.364.266-.798.336-1.274H27.15v-.896zm4.886 0v-1.61h-2.114v1.61h2.114zm-5.81-5.334v1.022h3.15v-1.022h-3.15zm3.15-.714v-1.078h-3.15v1.078h3.15zm3.136.714v.994h3.234v-.994h-3.234zm3.234-.714v-1.05h-3.234v1.05h3.234zm-5.39-1.876v4.424h-4.13v7.882h-1.008v-12.306h5.138zm5.39 4.382h-4.214v-4.368h5.208v10.85c0 .924-.42 1.386-1.26 1.386-.504 0-1.008-.014-1.512-.042l-.238-.896c.504.028.966.056 1.386.056.42 0 .63-.28.63-.812v-6.174zm4.55-4.844l.994.084a120.1 120.1 0 0 1-.378 2.646h2.072v.588c-.112 2.268-.504 4.214-1.176 5.866.658.686 1.204 1.302 1.624 1.862l-.672.784a21.617 21.617 0 0 0-1.4-1.666c-.56 1.064-1.246 1.988-2.086 2.772l-.63-.798a9.204 9.204 0 0 0 2.03-2.716 73.777 73.777 0 0 0-1.806-1.778c.336-1.218.63-2.534.882-3.948h-1.12v-.966h1.288c.14-.882.266-1.792.378-2.73zm.798 8.456c.532-1.4.84-2.982.938-4.76h-1.274c-.266 1.47-.532 2.688-.812 3.654.406.378.784.742 1.148 1.106zm9.282-1.512v5.964h-.966v-.84h-4.284v.84h-.966v-5.964h6.216zm-5.25 4.172h4.284v-3.248h-4.284v3.248zm-1.512-5.432l-.154-.91c.812-.42 1.82-1.988 3.024-4.732l.952.322c-.84 1.82-1.666 3.262-2.506 4.34a47.68 47.68 0 0 0 4.48-.49 26.867 26.867 0 0 0-1.19-2.128l.868-.42a35.347 35.347 0 0 1 2.17 4.046l-.938.448c-.168-.378-.322-.742-.49-1.092a77.818 77.818 0 0 1-6.216.616zM247.204 185.858l.91.112c-.07 1.204-.238 2.282-.504 3.206l-.91-.266c.28-.896.448-1.904.504-3.052zm2.394-.21c.196.868.378 1.82.546 2.856l-.938.21a35.75 35.75 0 0 0-.434-2.884l.826-.182zm1.386-3.556c.308.798.588 1.708.84 2.744l-.84.224c-.056-.238-.112-.476-.168-.7-1.316.392-2.59.658-3.794.812l-.266-.924c.182-.07.336-.168.462-.28.518-.504 1.134-1.344 1.862-2.52-.7.112-1.428.224-2.156.336l-.252-.924c.154-.07.294-.196.42-.378.728-1.148 1.344-2.478 1.876-3.962l.966.378c-.686 1.61-1.386 2.912-2.086 3.892a38.78 38.78 0 0 0 1.778-.252c.308-.532.616-1.106.952-1.708l.938.336c-1.344 2.352-2.436 4.004-3.304 4.956.784-.14 1.582-.308 2.394-.518-.14-.434-.28-.854-.42-1.26l.798-.252zm.238 3.192c.336.728.616 1.526.868 2.366l-.84.364a22.417 22.417 0 0 0-.812-2.478l.784-.252zm.434-6.916h3.388v-1.792h.994v1.792h3.346v.966h-3.346v2.128h3.038v.966h-7.042v-.966h3.01v-2.128h-3.388v-.966zm6.972 5.418v5.614h-.98v-.644h-4.144v.644h-.98v-5.614h6.104zm-5.124 4.018h4.144v-3.066h-4.144v3.066zm7.504-9.8h5.474v-1.4h1.036v1.4h5.446v.966h-5.446v1.372h4.41v3.962h-3.556c1.008 1.428 2.716 2.688 5.096 3.808l-.686.868c-2.478-1.386-4.214-2.94-5.222-4.676h-.042v5.082h-1.036v-5.082h-.042c-1.064 1.904-2.828 3.472-5.306 4.704l-.588-.924c2.324-.98 4.018-2.24 5.068-3.78H262.1v-3.962h4.382v-1.372h-5.474v-.966zm9.912 5.376v-2.086h-3.402v2.086h3.402zm-4.438 0v-2.086h-3.374v2.086h3.374z" fill="#2A3052" fill-rule="nonzero"/><path d="M139.718 168.04v.88c0 .132-.022.264-.022.396h1.76v-1.276h-1.738zm1.738-1.43v-1.298h-1.738v1.298h1.738zm-1.87 4.136c-.22 1.408-.682 2.596-1.342 3.564l-1.386-1.254c.748-1.056 1.122-2.398 1.144-4.026v-5.324h5.17v8.932c0 1.034-.572 1.562-1.672 1.562h-1.012l-.462-1.716c.33.044.638.088.946.088.308 0 .484-.198.484-.55v-1.276h-1.87zm-.726-14.058h-1.694v-1.628h8.646c-.176-.33-.374-.638-.55-.902l2.266-.396c.22.396.418.814.616 1.298h8.69v1.628h-15.95v.77h14.63v1.474H138.86v-2.244zm17.028 17.204h-1.144c-.836 0-1.232-.396-1.232-1.188v-2.838l-.594.418c-.308-.528-.66-1.1-1.056-1.694-.022 1.32-.11 2.354-.286 3.102-.22.814-.682 1.694-1.364 2.618l-1.144-1.012-.55.616a10.785 10.785 0 0 0-1.694-1.76l1.056-.968c.506.374.968.792 1.386 1.254.286-.484.484-.902.594-1.298.176-.616.286-1.628.286-3.058v-4.356h5.082v8.47c0 .11.044.176.154.176h.242c.088 0 .154-.11.22-.33.044-.22.088-.99.132-2.288l1.386.462c-.132 1.672-.286 2.684-.462 3.08-.176.396-.528.594-1.012.594zm-4.026-6.468l.55-.352c.44.55.792 1.056 1.1 1.54v-3.19h-1.65v2.002zm-7.854-3.696h5.236v7.348h-5.236v-7.348zm3.52 6.05v-.88h-1.826v.88h1.826zm-1.826-1.936h1.826v-.858h-1.826v.858zm0-1.936h1.826v-.88h-1.826v.88zm-.352 5.324l1.078.968a9.02 9.02 0 0 1-2.024 2.068l-.968-1.254a8.23 8.23 0 0 0 1.914-1.782zm-5.786-11.638h14.806v3.41h-14.806v-3.41zm12.672 2.156v-.902h-10.538v.902h10.538z" fill="#FFF" fill-rule="nonzero"/><path d="M257.032 125.784v10.404h-.864v-.78h-6.312v.804h-.876v-10.428h8.052zm-7.176 8.784h6.312v-2.256h-6.312v2.256zm0-3.048h6.312v-2.112h-6.312v2.112zm0-2.904h6.312v-1.992h-6.312v1.992zm12.276 1.188v6.372h-.804v-6.264a14.534 14.534 0 0 1-1.464 3.276l-.372-.948c.84-1.188 1.428-2.544 1.788-4.08h-1.428v-.792h1.476v-2.172h.804v2.172h1.308v.792h-1.308v.708a25.47 25.47 0 0 1 1.596 2.052l-.504.756c-.42-.768-.78-1.392-1.092-1.872zm1.848-2.52h1.764v-.9h-2.1v-.744h6.648v.744H268.3v.9h1.752v2.772h-6.072v-2.772zm3.6-.9h-1.116v.9h1.116v-.9zm1.716 3v-1.428h-1.056v1.428h1.056zm-1.728 0v-1.428h-1.092v1.428h1.092zm-1.764 0v-1.428h-1.068v1.428h1.068zm.612 6.78h-.996l-.168-.768c.312.024.6.048.888.048.264 0 .408-.132.408-.372v-1.944h-2.832v-.744h6.6v.744h-2.976v2.136c0 .6-.312.9-.924.9zm-2.148-5.34h5.568v.744h-5.568v-.744zm.648 2.796l.552.48a8.704 8.704 0 0 1-1.956 2.028l-.492-.636a8.51 8.51 0 0 0 1.896-1.872zm3.876.012a13.422 13.422 0 0 1 1.776 1.872l-.576.564c-.408-.6-.984-1.248-1.728-1.932l.528-.504z" fill="#6D6E71" fill-rule="nonzero"/></g></svg>

<?xml version="1.0" encoding="UTF-8"?>
<svg width="301px" height="201px" viewBox="0 0 301 201" version="1.1" xmlns="http://www.w3.org/2000/svg" xmlns:xlink="http://www.w3.org/1999/xlink">
    <!-- Generator: Sketch 52.3 (67297) - http://www.bohemiancoding.com/sketch -->
    <title>Traditional Chinese  down</title>
    <desc>Created with Sketch.</desc>
    <g id="Traditional-Chinese--down" stroke="none" stroke-width="1" fill="none" fill-rule="evenodd">
        <g transform="translate(2.000000, 2.000000)">
            <polygon id="Path" stroke="#C2C2C2" stroke-width="2.44822785" fill="#F1F2F2" points="0.215189873 0.213584906 297.670886 0.213584906 297.670886 197.421132 0.215189873 197.421132"></polygon>
            <path d="M0.139240506,32.8666038 L297.594937,32.8666038" id="Path" stroke="#C2C2C2" stroke-width="2.44822785"></path>
            <path d="M2.26582278,54.6732075 L295.468354,54.6732075 M2.26582278,75.2662264 L295.468354,75.2662264 M2.26582278,95.8213208 L295.468354,95.8213208 M2.26582278,136.969434 L295.468354,136.969434 M2.26582278,157.524528 L295.468354,157.524528 M2.26582278,178.079623 L295.468354,178.079623 M37.6582278,34.1181132 L37.6582278,196.207547 M74.7594937,34.1181132 L74.7594937,196.207547 M111.860759,34.1181132 L111.860759,196.207547 M148.962025,34.1181132 L148.962025,196.207547 M186.025316,34.1181132 L186.025316,196.207547 M223.126582,34.1181132 L223.126582,196.207547 M260.227848,34.1181132 L260.227848,196.207547" id="Shape" stroke="#DFDEDE" stroke-width="1.22392405"></path>
            <path d="M2.26582278,116.376415 L295.468354,116.376415" id="Path" stroke="#2A3052" stroke-width="1.22392405" stroke-linejoin="round"></path>
            <polyline id="Path" stroke="#2A3052" stroke-width="3.6721519" stroke-linecap="round" stroke-linejoin="round" points="37.9240506 116.376415 71.9493671 141.141132 107.151899 102.116792 140.759494 138.258868 186.025316 93.9250943 229.810127 184.185472 260.227848 157.524528"></polyline>
            <path d="M187.506624,147.305471 L152.114219,147.305471 L146.645865,139 L141.17751,147.305471 L105.785105,147.305471 C104.504741,147.311453 103.279659,147.827248 102.381451,148.738508 C101.483244,149.649767 100.986122,150.881202 101.000295,152.159811 L101.000295,177.227924 C100.986122,178.506533 101.483244,179.737968 102.381451,180.649228 C103.279659,181.560487 104.504741,182.076282 105.785105,182.082264 L187.468649,182.082264 C188.749014,182.076282 189.974096,181.560487 190.872304,180.649228 C191.770511,179.737968 192.267633,178.506533 192.25346,177.227924 L192.25346,152.159811 C192.274645,149.514371 190.155321,147.347049 187.506624,147.305471 Z" id="Path" fill="#E88024"></path>
            <g id="Group" opacity="0.6" transform="translate(29.379747, 107.188679)" fill="#FFFFFF">
                <ellipse id="Oval" cx="8.5443038" cy="9.1877358" rx="8.20253165" ry="8.5709434"></ellipse>
            </g>
            <ellipse id="Oval" stroke="#E88024" stroke-width="2.44822785" cx="37.9240506" cy="116.376415" rx="8.20253165" ry="8.5709434"></ellipse>
            <g id="Group" opacity="0.6" transform="translate(251.632911, 147.905660)" fill="#FFFFFF">
                <ellipse id="Oval" cx="8.5949367" cy="9.0120755" rx="8.20253165" ry="8.5709434"></ellipse>
            </g>
            <ellipse id="Oval" stroke="#E88024" stroke-width="2.44822785" cx="260.227848" cy="156.917736" rx="8.20253165" ry="8.5709434"></ellipse>
            <path d="M21.092,11.954 L25.698,11.954 L25.698,16.714 L24.368,16.714 L24.368,18.534 L25.796,18.534 L25.796,19.906 L24.368,19.906 L24.368,21.88 C24.844,21.74 25.306,21.586 25.754,21.446 L25.754,22.902 C24.326,23.378 22.674,23.826 20.826,24.232 L20.406,22.832 L21.008,22.706 L21.008,17.904 L22.296,17.904 L22.296,22.426 C22.548,22.37 22.786,22.314 23.01,22.258 L23.01,16.714 L21.092,16.714 L21.092,11.954 Z M24.312,15.37 L24.312,13.298 L22.492,13.298 L22.492,15.37 L24.312,15.37 Z M27.854,15.272 C27.658,15.972 27.434,16.602 27.182,17.19 L25.978,16.434 C26.552,15.146 26.958,13.774 27.21,12.332 L28.456,12.598 C28.372,13.046 28.302,13.466 28.218,13.872 L29.128,13.872 L29.128,11.548 L30.5,11.548 L30.5,13.872 L32.6,13.872 L32.6,15.272 L30.486,15.272 C30.444,16.098 30.388,16.868 30.304,17.568 L33.132,17.568 L33.132,18.982 L30.724,18.982 C31.074,20.788 32.026,22.202 33.566,23.224 L32.754,24.526 C31.27,23.392 30.276,21.936 29.758,20.172 C29.646,20.508 29.534,20.816 29.422,21.11 C28.778,22.566 27.756,23.686 26.328,24.47 L25.586,23.294 C26.958,22.454 27.882,21.39 28.358,20.13 C28.47,19.766 28.582,19.388 28.68,18.982 L26.146,18.982 L26.146,17.568 L28.932,17.568 C29.016,16.854 29.086,16.084 29.114,15.272 L27.854,15.272 Z" id="跌" fill="#000000" fill-rule="nonzero"></path>
            <path d="M27.15,150.892 L29.012,150.892 L29.012,149.282 L27.528,149.282 L27.528,148.414 L34.318,148.414 L34.318,149.282 L32.96,149.282 L32.96,150.892 L34.766,150.892 L34.766,151.788 L32.96,151.788 L32.96,155.008 L32.036,155.008 L32.036,151.788 L29.852,151.788 C29.768,152.53 29.6,153.16 29.348,153.664 C29.012,154.322 28.438,154.84 27.654,155.204 L27.15,154.406 C27.836,154.07 28.326,153.622 28.606,153.062 C28.76,152.698 28.872,152.264 28.942,151.788 L27.15,151.788 L27.15,150.892 Z M32.036,150.892 L32.036,149.282 L29.922,149.282 L29.922,150.892 L32.036,150.892 Z M26.226,145.558 L26.226,146.58 L29.376,146.58 L29.376,145.558 L26.226,145.558 Z M29.376,144.844 L29.376,143.766 L26.226,143.766 L26.226,144.844 L29.376,144.844 Z M32.512,145.558 L32.512,146.552 L35.746,146.552 L35.746,145.558 L32.512,145.558 Z M35.746,144.844 L35.746,143.794 L32.512,143.794 L32.512,144.844 L35.746,144.844 Z M30.356,142.968 L30.356,147.392 L26.226,147.392 L26.226,155.274 L25.218,155.274 L25.218,142.968 L30.356,142.968 Z M35.746,147.35 L31.532,147.35 L31.532,142.982 L36.74,142.982 L36.74,153.832 C36.74,154.756 36.32,155.218 35.48,155.218 C34.976,155.218 34.472,155.204 33.968,155.176 L33.73,154.28 C34.234,154.308 34.696,154.336 35.116,154.336 C35.536,154.336 35.746,154.056 35.746,153.524 L35.746,147.35 Z M40.296,142.506 L41.29,142.59 C41.164,143.542 41.038,144.424 40.912,145.236 L42.984,145.236 L42.984,145.824 C42.872,148.092 42.48,150.038 41.808,151.69 C42.466,152.376 43.012,152.992 43.432,153.552 L42.76,154.336 C42.368,153.818 41.906,153.258 41.36,152.67 C40.8,153.734 40.114,154.658 39.274,155.442 L38.644,154.644 C39.47,153.888 40.142,152.992 40.674,151.928 C40.114,151.354 39.512,150.766 38.868,150.15 C39.204,148.932 39.498,147.616 39.75,146.202 L38.63,146.202 L38.63,145.236 L39.918,145.236 C40.058,144.354 40.184,143.444 40.296,142.506 Z M41.094,150.962 C41.626,149.562 41.934,147.98 42.032,146.202 L40.758,146.202 C40.492,147.672 40.226,148.89 39.946,149.856 C40.352,150.234 40.73,150.598 41.094,150.962 Z M50.376,149.45 L50.376,155.414 L49.41,155.414 L49.41,154.574 L45.126,154.574 L45.126,155.414 L44.16,155.414 L44.16,149.45 L50.376,149.45 Z M45.126,153.622 L49.41,153.622 L49.41,150.374 L45.126,150.374 L45.126,153.622 Z M43.614,148.19 L43.46,147.28 C44.272,146.86 45.28,145.292 46.484,142.548 L47.436,142.87 C46.596,144.69 45.77,146.132 44.93,147.21 C46.498,147.112 47.996,146.944 49.41,146.72 C49.018,145.95 48.626,145.236 48.22,144.592 L49.088,144.172 C49.858,145.404 50.586,146.748 51.258,148.218 L50.32,148.666 C50.152,148.288 49.998,147.924 49.83,147.574 C47.968,147.84 45.896,148.05 43.614,148.19 Z" id="開始" fill="#2A3052" fill-rule="nonzero"></path>
            <path d="M247.204,185.858 L248.114,185.97 C248.044,187.174 247.876,188.252 247.61,189.176 L246.7,188.91 C246.98,188.014 247.148,187.006 247.204,185.858 Z M249.598,185.648 C249.794,186.516 249.976,187.468 250.144,188.504 L249.206,188.714 C249.08,187.622 248.94,186.67 248.772,185.83 L249.598,185.648 Z M250.984,182.092 C251.292,182.89 251.572,183.8 251.824,184.836 L250.984,185.06 C250.928,184.822 250.872,184.584 250.816,184.36 C249.5,184.752 248.226,185.018 247.022,185.172 L246.756,184.248 C246.938,184.178 247.092,184.08 247.218,183.968 C247.736,183.464 248.352,182.624 249.08,181.448 C248.38,181.56 247.652,181.672 246.924,181.784 L246.672,180.86 C246.826,180.79 246.966,180.664 247.092,180.482 C247.82,179.334 248.436,178.004 248.968,176.52 L249.934,176.898 C249.248,178.508 248.548,179.81 247.848,180.79 C248.436,180.72 249.038,180.636 249.626,180.538 C249.934,180.006 250.242,179.432 250.578,178.83 L251.516,179.166 C250.172,181.518 249.08,183.17 248.212,184.122 C248.996,183.982 249.794,183.814 250.606,183.604 C250.466,183.17 250.326,182.75 250.186,182.344 L250.984,182.092 Z M251.222,185.284 C251.558,186.012 251.838,186.81 252.09,187.65 L251.25,188.014 C250.998,187.09 250.732,186.264 250.438,185.536 L251.222,185.284 Z M251.656,178.368 L255.044,178.368 L255.044,176.576 L256.038,176.576 L256.038,178.368 L259.384,178.368 L259.384,179.334 L256.038,179.334 L256.038,181.462 L259.076,181.462 L259.076,182.428 L252.034,182.428 L252.034,181.462 L255.044,181.462 L255.044,179.334 L251.656,179.334 L251.656,178.368 Z M258.628,183.786 L258.628,189.4 L257.648,189.4 L257.648,188.756 L253.504,188.756 L253.504,189.4 L252.524,189.4 L252.524,183.786 L258.628,183.786 Z M253.504,187.804 L257.648,187.804 L257.648,184.738 L253.504,184.738 L253.504,187.804 Z M261.008,178.004 L266.482,178.004 L266.482,176.604 L267.518,176.604 L267.518,178.004 L272.964,178.004 L272.964,178.97 L267.518,178.97 L267.518,180.342 L271.928,180.342 L271.928,184.304 L268.372,184.304 C269.38,185.732 271.088,186.992 273.468,188.112 L272.782,188.98 C270.304,187.594 268.568,186.04 267.56,184.304 L267.518,184.304 L267.518,189.386 L266.482,189.386 L266.482,184.304 L266.44,184.304 C265.376,186.208 263.612,187.776 261.134,189.008 L260.546,188.084 C262.87,187.104 264.564,185.844 265.614,184.304 L262.1,184.304 L262.1,180.342 L266.482,180.342 L266.482,178.97 L261.008,178.97 L261.008,178.004 Z M270.92,183.38 L270.92,181.294 L267.518,181.294 L267.518,183.38 L270.92,183.38 Z M266.482,183.38 L266.482,181.294 L263.108,181.294 L263.108,183.38 L266.482,183.38 Z" id="結束" fill="#2A3052" fill-rule="nonzero"></path>
            <path d="M139.718,168.04 L139.718,168.92 C139.718,169.052 139.696,169.184 139.696,169.316 L141.456,169.316 L141.456,168.04 L139.718,168.04 Z M141.456,166.61 L141.456,165.312 L139.718,165.312 L139.718,166.61 L141.456,166.61 Z M139.586,170.746 C139.366,172.154 138.904,173.342 138.244,174.31 L136.858,173.056 C137.606,172 137.98,170.658 138.002,169.03 L138.002,163.706 L143.172,163.706 L143.172,172.638 C143.172,173.672 142.6,174.2 141.5,174.2 L140.488,174.2 L140.026,172.484 C140.356,172.528 140.664,172.572 140.972,172.572 C141.28,172.572 141.456,172.374 141.456,172.022 L141.456,170.746 L139.586,170.746 Z M138.86,156.688 L137.166,156.688 L137.166,155.06 L145.812,155.06 C145.636,154.73 145.438,154.422 145.262,154.158 L147.528,153.762 C147.748,154.158 147.946,154.576 148.144,155.06 L156.834,155.06 L156.834,156.688 L140.884,156.688 L140.884,157.458 L155.514,157.458 L155.514,158.932 L138.86,158.932 L138.86,156.688 Z M155.888,173.892 L154.744,173.892 C153.908,173.892 153.512,173.496 153.512,172.704 L153.512,169.866 L152.918,170.284 C152.61,169.756 152.258,169.184 151.862,168.59 C151.84,169.91 151.752,170.944 151.576,171.692 C151.356,172.506 150.894,173.386 150.212,174.31 L149.068,173.298 L148.518,173.914 C147.99,173.232 147.418,172.638 146.824,172.154 L147.88,171.186 C148.386,171.56 148.848,171.978 149.266,172.44 C149.552,171.956 149.75,171.538 149.86,171.142 C150.036,170.526 150.146,169.514 150.146,168.084 L150.146,163.728 L155.228,163.728 L155.228,172.198 C155.228,172.308 155.272,172.374 155.382,172.374 L155.624,172.374 C155.712,172.374 155.778,172.264 155.844,172.044 C155.888,171.824 155.932,171.054 155.976,169.756 L157.362,170.218 C157.23,171.89 157.076,172.902 156.9,173.298 C156.724,173.694 156.372,173.892 155.888,173.892 Z M151.862,167.424 L152.412,167.072 C152.852,167.622 153.204,168.128 153.512,168.612 L153.512,165.422 L151.862,165.422 L151.862,167.424 Z M144.008,163.728 L149.244,163.728 L149.244,171.076 L144.008,171.076 L144.008,163.728 Z M147.528,169.778 L147.528,168.898 L145.702,168.898 L145.702,169.778 L147.528,169.778 Z M145.702,167.842 L147.528,167.842 L147.528,166.984 L145.702,166.984 L145.702,167.842 Z M145.702,165.906 L147.528,165.906 L147.528,165.026 L145.702,165.026 L145.702,165.906 Z M145.35,171.23 L146.428,172.198 C145.878,172.99 145.196,173.672 144.404,174.266 L143.436,173.012 C144.184,172.506 144.822,171.912 145.35,171.23 Z M139.564,159.592 L154.37,159.592 L154.37,163.002 L139.564,163.002 L139.564,159.592 Z M152.236,161.748 L152.236,160.846 L141.698,160.846 L141.698,161.748 L152.236,161.748 Z" id="贏" fill="#FFFFFF" fill-rule="nonzero"></path>
            <path d="M257.032,125.784 L257.032,136.188 L256.168,136.188 L256.168,135.408 L249.856,135.408 L249.856,136.212 L248.98,136.212 L248.98,125.784 L257.032,125.784 Z M249.856,134.568 L256.168,134.568 L256.168,132.312 L249.856,132.312 L249.856,134.568 Z M249.856,131.52 L256.168,131.52 L256.168,129.408 L249.856,129.408 L249.856,131.52 Z M249.856,128.616 L256.168,128.616 L256.168,126.624 L249.856,126.624 L249.856,128.616 Z M262.132,129.804 L262.132,136.176 L261.328,136.176 L261.328,129.912 C260.956,131.112 260.464,132.204 259.864,133.188 L259.492,132.24 C260.332,131.052 260.92,129.696 261.28,128.16 L259.852,128.16 L259.852,127.368 L261.328,127.368 L261.328,125.196 L262.132,125.196 L262.132,127.368 L263.44,127.368 L263.44,128.16 L262.132,128.16 L262.132,128.868 C262.66,129.48 263.2,130.164 263.728,130.92 L263.224,131.676 C262.804,130.908 262.444,130.284 262.132,129.804 Z M263.98,127.284 L265.744,127.284 L265.744,126.384 L263.644,126.384 L263.644,125.64 L270.292,125.64 L270.292,126.384 L268.3,126.384 L268.3,127.284 L270.052,127.284 L270.052,130.056 L263.98,130.056 L263.98,127.284 Z M267.58,126.384 L266.464,126.384 L266.464,127.284 L267.58,127.284 L267.58,126.384 Z M269.296,129.384 L269.296,127.956 L268.24,127.956 L268.24,129.384 L269.296,129.384 Z M267.568,129.384 L267.568,127.956 L266.476,127.956 L266.476,129.384 L267.568,129.384 Z M265.804,129.384 L265.804,127.956 L264.736,127.956 L264.736,129.384 L265.804,129.384 Z M266.416,136.164 L265.42,136.164 L265.252,135.396 C265.564,135.42 265.852,135.444 266.14,135.444 C266.404,135.444 266.548,135.312 266.548,135.072 L266.548,133.128 L263.716,133.128 L263.716,132.384 L270.316,132.384 L270.316,133.128 L267.34,133.128 L267.34,135.264 C267.34,135.864 267.028,136.164 266.416,136.164 Z M264.268,130.824 L269.836,130.824 L269.836,131.568 L264.268,131.568 L264.268,130.824 Z M264.916,133.62 L265.468,134.1 C264.94,134.868 264.28,135.552 263.512,136.128 L263.02,135.492 C263.764,134.952 264.4,134.328 264.916,133.62 Z M268.792,133.632 C269.5,134.256 270.088,134.88 270.568,135.504 L269.992,136.068 C269.584,135.468 269.008,134.82 268.264,134.136 L268.792,133.632 Z" id="目標" fill="#6D6E71" fill-rule="nonzero"></path>
        </g>
    </g>
</svg>
